!!!!SEGMENT: pl-kk--kk-i-386--002-005_anonim--missa-seconda-offertorium-inclina-domine-aurem-tuam.krn
!!!cenid: 18xx:4512
!!!COM: Anonim
!!!COM-rismID: pe30004985
!!!CDT:
!!!CNT:
!!!OPR: Missa seconda
!!!OTL: Offertorium/Inclina Domine aurem tuam
!!!OMV: 005
!!!PDT:
!!!AGN: Sacred
!!!YEC: Copyright 2022 Narodowy Instytut Fryderyka Chopina (https://polishscores.org)
!!!YEM: License CC-BY-4.0 (https://creativecommons.org/licenses/by/4.0)
!!!SMS-siglum: PL-Kk
!!!SMS-shelfmark: Kk.I.386
!!!SMS-variant:
!!!SMS-altvar:
!!!SMS-shelfwork: 002-005 M
!!!NIFC-rismSourceID: 1001218240
!!!NIFC-rismChildID: 1001218243
!!!NIFC-islandoraID: pl-kk:16060
!!!URL-pdf-islandora: https://repozytorium.nifc.pl/islandora/object/pl-kk%3A16060/datastream/PDF/view
!!!URL-scan: https://polish.musicsources.pl/pl/lokalizacje/galeria/rekopisy/7134/3 @EN{Scan on Polish Music Sources Website} @PL{Skany w portalu Dziedzictwo Muzyki Polskiej w otwartym dostępie}
!!!IIIF:
!!!ONB-nifc: UWAGA: Części Missy Seconda: Rorate, Kyrie, Gloria, Graduale, Offertorium, Sanctus, Benedicuts, Agnus. Zakres skanów: S – 6-9, A – 15-19, T – 25-29, B – 35-39
!!!AIN: 1 alto 1 bass 1 soprn 1 tenor
!!!key:
**kern	**text	**kern	**text	**kern	**text	**kern	**text
*part4	*part4	*part3	*part3	*part2	*part2	*part1	*part1
*staff4	*staff4	*staff3	*staff3	*staff2	*staff2	*staff1	*staff1
*I"Basso.	*	*I"Tenore.	*	*I"Alto.	*	*I"Soprano.	*
*I'B	*	*I'T	*	*I'A	*	*I'S	*
*Ibass	*	*Itenor	*	*Ialto	*	*Isoprn	*
*ICvox	*	*ICvox	*	*ICvox	*	*ICvox	*
*clefF4	*	*clefC4	*	*clefC3	*	*clefC1	*
*k[f#]	*	*k[f#]	*	*k[f#]	*	*k[f#]	*
*G:	*	*G:	*	*G:	*	*G:	*
*M3/4	*	*M3/4	*	*M3/4	*	*M3/4	*
!LO:TX:a:t=in G.	!	!LO:TX:a:t=in G.	!	!LO:TX:a:t=in G.	!	!LO:TX:a:t=in G.	!
4GG/	In-	4G/	In-	4d\	In-	4b\	In-
=1	=1	=1	=1	=1	=1	=1	=1
*	*	*2\right	*	*2\right	*	*2\right	*
4GG/	-cli-	2G/	-cli-	2d\	-cli-	2b\	-cli-
4BB/	.	.	.	.	.	.	.
4D\	-na	4F#/	-na	4d\	-na	4a\	.
=2	=2	=2	=2	=2	=2	=2	=2
4.E\	Do-	4G/	Do-	4c\	Do-	4.cc\	Do-
.	.	4A/	-mi-	4d\	-mi-	.	.
8F#\	-mi-	.	.	.	.	8cc\	-mi-
4G\	-ne	4G/	-ne	4d\	-ne	4b\	-ne
=3	=3	=3	=3	=3	=3	=3	=3
4C\	au-	4G/	au-	4e\	au-	2ee\	au-
4E\	.	4c\	.	4g\	.	.	.
4F#\	-rem	4c\	-rem	4a\	-rem	4ee\	-rem
=4	=4	=4	=4	=4	=4	=4	=4
4G\	tu-	4c\	tu-	4g\	tu-	4ee\	tu-
4G\	-am	4B\	-am	4g\	-am	4dd\	-am
4r	.	4r	.	4r	.	4r	.
!	!	!LO:LB:g=original	!	!LO:LB:g=original	!	!LO:LB:g=original	!
=5	=5	=5	=5	=5	=5	=5	=5
*2\right	*	*	*	*	*	*	*
2G\	et	2B\	et	2e\	et	2cc\	et
4G\	e-	4B\	e-	4e\	e-	4cc\	e-
!LO:LB:g=original	!	!	!	!	!	!	!
=6	=6	=6	=6	=6	=6	=6	=6
4G\	-xau-	4B-X\	-xau-	4e\	-xau-	4cc#X\	-xau-
4F#\	-di	4A\	-di	4d\	-di	4dd\	-di
4D\	e-	4A\	e-	4f#\	e-	4ccn\	e-
=7	=7	=7	=7	=7	=7	=7	=7
2GG/	-xau-	4A/	-xau-	4f#\	-xau-	4cc\	-xau-
.	.	4G/	.	4g\	.	4b\	.
4C#X/	-di	4G/	-di	4e\	-di	4b-X\	-di
=8	=8	=8	=8	=8	=8	=8	=8
2D\	me,	2F#/	me,	2f#\	me,	2a\	me,
4r	.	4r	.	4r	.	4r	.
=9	=9	=9	=9	=9	=9	=9	=9
4.D\	quo-	4.A\	quo-	4.f#X\	quo-	4.a\	quo-
8D\	-ni-	8A\	-ni-	8f#\	-ni-	8a\	-ni-
4D\	-am	4A\	-am	4fn\	-am	4a\	-am
=10	=10	=10	=10	=10	=10	=10	=10
4C/	i-	4A\	i-	4e\	i-	4a\	i-
4C/	-nops	4A\	-nops	4e\	-nops	4a\	-nops
4E\	et	4G#X/	et	4e\	et	4b\	et
=11	=11	=11	=11	=11	=11	=11	=11
4E\	pau-	4G#X/	pau-	4e\	pau-	4b\	pau-
4AA/	-per	4A/	-per	4e\	-per	4cc\	-per
4GG/	sum	4B/	sum	4g\	sum	4dd\	sum
!	!	!LO:LB:g=original	!	!LO:LB:g=original	!	!LO:LB:g=original	!
=12	=12	=12	=12	=12	=12	=12	=12
4BB/	e-	4d\	e-	4g\	e-	4ffn\	e-
4C/	-go,	4c\	-go	4g\	-go,	4ee\	-go,
4r	.	4r	.	4r	.	4r	.
!LO:LB:g=original	!	!	!	!	!	!	!
=13	=13	=13	=13	=13	=13	=13	=13
4c\	i-	4e-X\	i-	4f#X\	i-	4a\	i-
4c\	-nops	4e-\	-nops	4f#\	-nops	4a\	-nops
4c\	et	4e-\	et	4f#\	et	4a\	et
=14	=14	=14	=14	=14	=14	=14	=14
2c#X\	pau-	4en\	pau-	4g\	pau-	4a\	pau-
.	.	4e\	-per	4g\	-per	4b-X\	-per
4c#\	-per	4e\	sum	4g\	sum	4b-\	sum
=15	=15	=15	=15	=15	=15	=15	=15
4d\	sum	4d\	e-	4g\	e-	4bn\	e-
2D\	e-	4A\	.	2f#\	.	4cc\	.
.	.	4c\	.	.	.	4a\	.
=16	=16	=16	=16	=16	=16	=16	=16
4G\	-go,	4B\	-go.	4g\	-go,	4g\	-go,
4r	.	4r	.	4r	.	4r	.
!	!	!LO:TX:b:t=Volti ſubitto.	!	!	!	!	!
4r	.	4r	.	4r	.	4r	.
!LO:TX:b:t=Volti Subitto.	!	!LO:PB:g=original	!	!	!	!	!
!LO:PB:g=original	!	!	!	!	!	!	!
=17	=17	=17	=17	=17	=17	=17	=17
4E\	Cus-	4B\	Cu-	4g\	Cus-	4b\	Cus-
4E\	-to-	4B\	-sto-	4g\	-to-	4b\	-to-
4G\	-di	4B\	-di	4b\	-di	4ee\	-di
=18	=18	=18	=18	=18	=18	=18	=18
4.F#\	a-	4.c\	a-	4.a\	a-	4.ee\	a-
8F#\	-ni-	8c\	-ni-	8a\	-ni-	8dd#X\	-ni-
4F#\	-mam	4c\	-mam	4a\	-mam	4dd#\	-mam
!	!	!	!	!LO:LB:g=original	!	!LO:LB:g=original	!
=19	=19	=19	=19	=19	=19	=19	=19
4D#X\	a-	4A\	a-	4f#\	a-	4ccn\	a-
4D#\	-ni-	4B\	-ni-	4f#\	-ni-	4b\	-ni-
4D#\	-mam	4c\	-mam	4f#\	-mam	4a\	-mam
=20	=20	=20	=20	=20	=20	=20	=20
4E\	me-	4B\	me-	4e\	me-	4a\	me-
4E\	-am	4B\	-am	4e\	-am	4g\	-am
4r	.	4r	.	4r	.	4r	.
=21	=21	=21	=21	=21	=21	=21	=21
4.E\	quo-	4.B\	quo-	4.g\	quo-	4.ee\	quo-
8E\	-ni-	8B\	-ni-	8g\	-ni-	8ee\	-ni-
4E\	-am	4B\	-am	4g\	-am	4ee\	-am
=22	=22	=22	=22	=22	=22	=22	=22
2E\	ſan-	2c#X\	ſan-	2a\	ſan-	2gg\	ſan-
4F#\	-ctus	4d\	-ctus	4a\	-ctus	4ff#X\	-ctus
!LO:LB:g=original	!	!LO:LB:g=original	!	!	!	!	!
=23	=23	=23	=23	=23	=23	=23	=23
4G\	san-	4B\	san-	4g\	san-	4ee\	san-
4A\	.	4A\	.	4f#\	.	4dd\	.
4AA/	-ctus	4G/	-ctus	4e\	-ctus	4cc#X\	-ctus
=24	=24	=24	=24	=24	=24	=24	=24
2D\	es,	2F#/	es,	2d\	es,	2dd\	est,
4r	.	4r	.	4r	.	4r	.
=25	=25	=25	=25	=25	=25	=25	=25
4F#\	sal-	4A\	sal-	4d\	sal-	4dd\	sal
!	!	!	!	!	!	!LO:LB:g=original	!
4G\	-vum	4B\	-vum	4e\	-vum	4dd\	-vum
4G#X\	fac	4B\	fac	4fn\	fac	4dd\	fac
!	!	!	!	!LO:LB:g=original	!	!	!
=26	=26	=26	=26	=26	=26	=26	=26
2A\	ser-	2cn\	ser-	2f#X\	ser-	4.dd\	ser-
.	.	.	.	.	.	8ee\	.
4A\	-vum	4c\	-vum	4f#\	-vum	4dd\	-vum
=27	=27	=27	=27	=27	=27	=27	=27
4F#\	ser-	4A\	ser-	4d\	ser-	2dd\	ser-
4G\	.	4B\	.	4e\	.	.	.
4G#X\	-vum	4B\	-vum	4fn\	-vum	4dd\	-vum
=28	=28	=28	=28	=28	=28	=28	=28
2A\	tu-	2c\	tu-	2f#X\	tu-	4.dd\	tu-
.	.	.	.	.	.	8ee\L	.
4A\	-um	4c\	-um	4f#\	-um	8ff#X\	.
.	.	.	.	.	.	8dd\J	-um
!	!	!LO:LB:g=original	!	!	!	!	!
=29	=29	=29	=29	=29	=29	=29	=29
2G\	De-	2B\	De-	2g\	De-	4dd\	De-
.	.	.	.	.	.	4gg\	.
4BB/	-us.	4G/	-us	4d\	-us	4b\	-us
!LO:LB:g=original	!	!	!	!	!	!	!
=30	=30	=30	=30	=30	=30	=30	=30
4C/	me-	4G/	me-	4e\	me-	4b\	me-
4C/	-us	4G/	-us	4e\	-us	4a\	-us
4C#X/	spe-	4G/	spe-	4e\	spe-	4a\	spe-
=31	=31	=31	=31	=31	=31	=31	=31
4D\	-ran-	4F#X/	-ran-	4d\	-ran-	4a\	-ran-
4D\	-tem	4G/	-tem	4d\	-tem	4b\	-tem
!	!	!	!	!	!	!LO:LB:g=original	!
4D\	in	4A/	in	4f#\	in	8dd\L	in-
.	.	.	.	.	.	8cc\J	.
=32	=32	=32	=32	=32	=32	=32	=32
2E\	te	2G/	te,	2g\	te,	2b\	-te,
!	!	!	!	!LO:LB:g=original	!	!	!
4F#\	spe-	4c\	spe-	4a\	spe-	4dd\	spe-
=33	=33	=33	=33	=33	=33	=33	=33
4G\	-ran-	4B\	-ran-	4g\	-ran-	4dd\	-ran-
4G\	-tem	4B\	-tem	4g\	-tem	4gg\	-tem
4D#X\	spe-	4A\	spe-	4f#\	spe-	4b\	spe-
=34	=34	=34	=34	=34	=34	=34	=34
4E\	-ran-	4G/	-ran-	4e\	-ran-	4b\	-ran-
4E\	-tem	4G/	-tem	4e\	-tem	4ee\	-tem
4BB/	spe-	4Fn/	spe-	4e\	spe-	4g\	spe-
!	!	!LO:LB:g=original	!	!	!	!	!
=35	=35	=35	=35	=35	=35	=35	=35
4C/	-ran-	4E/	-ran-	4e\	-ran-	4g\	-ran-
4AA/	-tem	4F#X/	-tem	4e\	-tem	4cc\	-tem
4GG/	in	4G/	in	4e\	in	4b\	in
=36	=36	=36	=36	=36	=36	=36	=36
2.C;/	te	2.G;/	te,	2.e;\	te,	2.ee;\	te
!LO:LB:g=original	!	!	!	!	!	!	!
=37||	=37||	=37||	=37||	=37||	=37||	=37||	=37||
4r	.	4r	.	4r	.	4r	.
4c\	De-	4e\	De-	4g\	De-	4a\	De-
4c\	-us	4e\	-us	4g\	-us	4a\	-us
!	!	!	!	!	!	!LO:LB:g=original	!
=38	=38	=38	=38	=38	=38	=38	=38
4c#X\	me-	4e\	me-	4g\	me-	4a\	me-
4c#\	-us	4e\	-us	4g\	-us	4b-X\	-us
4c#\	spe-	4e\	spe-	4g\	spe-	4b-\	spe-
=39	=39	=39	=39	=39	=39	=39	=39
2.d\	-ran-	4d\	-ran-	2.g\	-ran-	2.bn\	-ran-
.	.	4B\	.	.	.	.	.
.	.	4G/	.	.	.	.	.
!	!	!	!	!LO:LB:g=original	!	!	!
=40	=40	=40	=40	=40	=40	=40	=40
2D\	-tem	2A\	-tem	2f#\	-tem	4dd\	-tem
.	.	.	.	.	.	4cc\	.
4D\	in	4c\	in	4f#\	in	4a\	in
=41	=41	=41	=41	=41	=41	=41	=41
4G\	te.	4B\	te	4g\	te	4g\	te,
4r	.	4r	.	4r	.	4r	.
4G\	in-	4e\	in-	4g\	in	4gg\	in
!	!	!LO:LB:g=original	!	!	!	!	!
=42	=42	=42	=42	=42	=42	=42	=42
2G\	-cli-	4e\	-cli-	2g\	cli-	4gg\	cli-
.	.	4d\	.	.	.	4ff#\	.
4G\	-na	4c\	-na	4g\	-na	4ee\	-na
=43	=43	=43	=43	=43	=43	=43	=43
4G\	Do-	4B/	Do-	4g\	Do-	4dd\	Do-
4D\	-mi-	4A/	-mi-	4f#\	-mi-	4cc\	-mi-
4E\	-nes	4G/	-ne	4g\	-ne	4b\	-ne
!LO:LB:g=original	!	!	!	!	!	!	!
=44	=44	=44	=44	=44	=44	=44	=44
4C/	au-	4c\	au-	4e\	au-	4a\	au-
4D/	.	4B\	.	4d\	.	4g\	.
4D/	-rem	4F#/	-rem	4d\	-rem	4a\	-rem
!	!	!	!	!	!	!LO:LB:g=original	!
=45	=45	=45	=45	=45	=45	=45	=45
4G\	tu-	4A\	tu-	4f#\	tu-	4cc\	tu-
4GG/	-am	4G/	-am	4g\	-am	4b\	-am,
4r	.	4r	.	4r	.	4r	.
=46	=46	=46	=46	=46	=46	=46	=46
2C/	et	4e\	et	2g\	et	4gg\	et
.	.	4d\	.	.	.	4ff#\	.
4E\	e-	4c\	e-	4g\	e-	4ee\	e-
=47	=47	=47	=47	=47	=47	=47	=47
4G\	-xau-	4B\	-xau-	4g\	-xau-	4dd\	-xau-
4D#X\	-di	4A\	.	4f#\	-di	4cc\	-di
4E\	e-	4G/	-di	4g\	e-	4b\	e-
!	!	!LO:LB:g=original	!	!	!	!	!
=48	=48	=48	=48	=48	=48	=48	=48
4C/	-xau-	4c\	e-	4e\	-xau-	8b\L	-xau-
.	.	.	.	.	.	8a\J	.
4Dn/	.	4B\	-xau-	4d\	.	4g/	.
4D/	-di	4A\	-di	4c\	-di	4f#/	-di
=49	=49	=49	=49	=49	=49	=49	=49
4GG/	me	4G/	me	4B/	me	4g\	me
4r	.	4r	.	4r	.	4r	.
4G\	e-	4B\	e-	4g\	e-	4dd\	e-
!LO:LB:g=original	!	!	!	!	!	!	!
=50	=50	=50	=50	=50	=50	=50	=50
2D\	-xau-	2A\	-xau-	2f#\	-xau-	4dd\	-xau-
.	.	.	.	.	.	4ee\	.
4F#\	-di	4d\	-di	4a\	-di	4cc\	-di
!	!	!	!	!	!	!LO:LB:g=original	!
=51	=51	=51	=51	=51	=51	=51	=51
4G\	me	4d\	me	4g\	me	4b\	me
4r	.	4r	.	4r	.	4r	.
4D/	e-	4B\	e-	4d\	e-	4d/	e-
=52	=52	=52	=52	=52	=52	=52	=52
2D\	-xau-	4B\	-xau-	4d\	-xau-	4d/	-xau-
.	.	4B-X\	.	4c#X\	.	4e/	.
4D\	-di	4A\	-di	4cn\	-di	4fn/	-di
=53	=53	=53	=53	=53	=53	=53	=53
2GG/	me	2G/	me	2B/	me	2g\	me
4GG/	e-	4D/	e-	4B/	e-	4g\	e-
!	!	!	!	!LO:LB:g=original	!	!	!
=54	=54	=54	=54	=54	=54	=54	=54
2C/	-xau-	2E/	-xau-	2c\	-xau-	2g\	-xau-
4GG/	-di	4D/	-di	4B/	-di	4g\	-di
=55	=55	=55	=55	=55	=55	=55	=55
2.GG/	me.	2.D/	me	2.B/	me	2.g\	me.
==	==	==	==	==	==	==	==
*-	*-	*-	*-	*-	*-	*-	*-
!!!system-decoration: [(s1,s2,s3,s4)]
!!!ENC: Anastazja Marusiak
!!!END: 2023-11-04
!!!ENC: Leszek Kubiak
!!!END: 2024-06-25
